X:35
T:Gone To the Bower
C:Mark Dunlop
N: Mark Dunlop, Reproduced with permission
Z:robin.beech@mcgill.ca
D:Malinky, Three Ravens
R:jig
M:6/8
L:1/8
K:D
EEE GEB | EEE GEB | BAG FED | BAG FAB | EEE GEB |
EEE GEB | BAG FAB | EEE E3 :: BAF GAB | ege B3 |
BAG FED | BAG FAB | B2B GAB | ege B3 | BAG FAB |1 EEE E3 :|2
EEE E2d |: eee BBB | gfe edB | ddd BeB | fBf gfd |
eee BBB | gfe edB | dcd eee | fff gfd :|
